svgs/duotone/road.svg

<svg xmlns="http://www.w3.org/2000/svg" viewBox="0 0 576 512"><!--! Font Awesome Pro 6.4.0 by @fontawesome - https://fontawesome.com License - https://fontawesome.com/license (Commercial License) Copyright 2023 Fonticons, Inc. --><defs><style>.fa-secondary{opacity:.4}</style></defs><path class="fa-primary" d="M256 32H181.2c-27.1 0-51.3 17.1-60.3 42.6L3.1 407.2C1.1 413 0 419.2 0 425.4C0 455.5 24.5 480 54.6 480H256V416c0-17.7 14.3-32 32-32s32 14.3 32 32v64H521.4c30.2 0 54.6-24.5 54.6-54.6c0-6.2-1.1-12.4-3.1-18.2L455.1 74.6C446 49.1 421.9 32 394.8 32H320V96c0 17.7-14.3 32-32 32s-32-14.3-32-32V32zm64 192v64c0 17.7-14.3 32-32 32s-32-14.3-32-32V224c0-17.7 14.3-32 32-32s32 14.3 32 32z"/><path class="fa-secondary" d="M256 32h64V96c0 17.7-14.3 32-32 32s-32-14.3-32-32V32zm32 160c17.7 0 32 14.3 32 32v64c0 17.7-14.3 32-32 32s-32-14.3-32-32V224c0-17.7 14.3-32 32-32zm0 192c17.7 0 32 14.3 32 32v64H256V416c0-17.7 14.3-32 32-32z"/></svg>

<svg xmlns="http://www.w3.org/2000/svg" viewBox="0 0 576 512"><!--! Font Awesome Pro 6.3.0 by @fontawesome - https://fontawesome.com License - https://fontawesome.com/license (Commercial License) Copyright 2023 Fonticons, Inc. --><defs><style>.fa-secondary{opacity:.4}</style></defs><path class="fa-primary" d="M256 96C256 113.7 270.3 128 288 128C305.7 128 320 113.7 320 96V32H394.8C421.9 32 446 49.08 455.1 74.63L572.9 407.2C574.9 413 576 419.2 576 425.4C576 455.5 551.5 480 521.4 480H320V416C320 398.3 305.7 384 288 384C270.3 384 256 398.3 256 416V480H54.61C24.45 480 0 455.5 0 425.4C0 419.2 1.06 413 3.133 407.2L120.9 74.63C129.1 49.08 154.1 32 181.2 32H255.1L256 96zM320 224C320 206.3 305.7 192 288 192C270.3 192 256 206.3 256 224V288C256 305.7 270.3 320 288 320C305.7 320 320 305.7 320 288V224z"/><path class="fa-secondary" d="M320 32V96C320 113.7 305.7 128 288 128C270.3 128 256 113.7 256 96V32H320zM288 192C305.7 192 320 206.3 320 224V288C320 305.7 305.7 320 288 320C270.3 320 256 305.7 256 288V224C256 206.3 270.3 192 288 192zM288 384C305.7 384 320 398.3 320 416V480H256V416C256 398.3 270.3 384 288 384z"/></svg>
